assets/icons/utility/standard_objects.svg

<?xml version="1.0"?><svg xmlns="http://www.w3.org/2000/svg" width="52" height="52" viewBox="0 0 52 52"><path fill="#fff" d="m46.2 38.9l-18.8 10.7c-1 0.6-2.3 0.6-3.3 0l-18.7-10.7c-0.8-0.4-0.8-1.4 0-1.8l4.4-2.5c0.3-0.2 0.7-0.2 1 0l11.4 6.5c1.1 0.6 2.3 0.9 3.6 0.9s2.5-0.3 3.6-0.9l11.4-6.5c0.3-0.2 0.7-0.2 1 0l4.4 2.5c0.8 0.4 0.8 1.4 0 1.8z m0-12l-18.8 10.7c-1 0.6-2.3 0.6-3.3 0l-18.7-10.7c-0.8-0.4-0.8-1.4 0-1.8l4.4-2.5c0.3-0.2 0.7-0.2 1 0l11.4 6.5c1.1 0.6 2.3 0.9 3.6 0.9s2.5-0.3 3.6-0.9l11.4-6.5c0.3-0.2 0.7-0.2 1 0l4.4 2.5c0.8 0.4 0.8 1.4 0 1.8z m-21.9-1.3l-18.8-10.7c-0.8-0.4-0.8-1.4 0-1.8l18.8-10.7c1-0.6 2.3-0.6 3.3 0l18.8 10.7c0.8 0.4 0.8 1.4 0 1.8l-18.8 10.7c-1 0.5-2.3 0.5-3.3 0z"></path></svg>

<svg xmlns="http://www.w3.org/2000/svg" x="0px" y="0px"
	 width="52px" height="52px" viewBox="0 0 52 52" enable-background="new 0 0 52 52" xml:space="preserve">
<path fill="#FFFFFF" d="M46.2,38.9L27.4,49.6c-1,0.6-2.3,0.6-3.3,0L5.4,38.9c-0.8-0.4-0.8-1.4,0-1.8l4.4-2.5c0.3-0.2,0.7-0.2,1,0
	l11.4,6.5c1.1,0.6,2.3,0.9,3.6,0.9s2.5-0.3,3.6-0.9l11.4-6.5c0.3-0.2,0.7-0.2,1,0l4.4,2.5C47,37.5,47,38.5,46.2,38.9z"/>
<path fill="#FFFFFF" d="M46.2,26.9L27.4,37.6c-1,0.6-2.3,0.6-3.3,0L5.4,26.9c-0.8-0.4-0.8-1.4,0-1.8l4.4-2.5c0.3-0.2,0.7-0.2,1,0
	l11.4,6.5c1.1,0.6,2.3,0.9,3.6,0.9s2.5-0.3,3.6-0.9l11.4-6.5c0.3-0.2,0.7-0.2,1,0l4.4,2.5C47,25.5,47,26.5,46.2,26.9z"/>
<path fill="#FFFFFF" d="M24.3,25.6L5.5,14.9c-0.8-0.4-0.8-1.4,0-1.8L24.3,2.4c1-0.6,2.3-0.6,3.3,0l18.8,10.7c0.8,0.4,0.8,1.4,0,1.8
	L27.6,25.6C26.6,26.1,25.3,26.1,24.3,25.6z"/>
</svg>
